public/icons/tools/css.svg

<svg width="64" height="64" viewBox="0 0 64 64" fill="none" xmlns="http://www.w3.org/2000/svg">
<path d="M13.3341 8L11.6008 16.9067H47.8408L46.6675 22.6667H10.4541L8.69414 31.5467H44.9341L42.9075 41.7067L28.2941 46.5333L15.6275 41.7067L16.5075 37.3333H7.60081L5.49414 48L26.4275 56L50.5608 48L53.7608 31.92L54.4008 28.6933L58.5075 8H13.3341Z" fill="black"/>
</svg>

<svg xmlns="http://www.w3.org/2000/svg" width="64" height="64" fill="none"><path fill="#000" d="m13.334 8-1.733 8.907h36.24l-1.174 5.76H10.454l-1.76 8.88h36.24l-2.026 10.16-14.614 4.826-12.667-4.826.88-4.374H7.601L5.494 48l20.934 8 24.133-8 3.2-16.08.64-3.227L58.507 8H13.334Z"/></svg>
